src/Pure/16/symbolic/actions/cinnamon-caps-lock-symbolic.svg

<?xml version="1.0" encoding="UTF-8" standalone="no"?>
<svg
   width="16"
   height="16"
   version="1.1"
   id="svg3"
   sodipodi:docname="cinnamon-caps-lock-symbolic.svg"
   inkscape:version="1.4.2 (ebf0e940d0, 2025-05-08)"
   xmlns:inkscape="http://www.inkscape.org/namespaces/inkscape"
   xmlns:sodipodi="http://sodipodi.sourceforge.net/DTD/sodipodi-0.dtd"
   xmlns="http://www.w3.org/2000/svg"
   xmlns:svg="http://www.w3.org/2000/svg"
   xmlns:rdf="http://www.w3.org/1999/02/22-rdf-syntax-ns#"
   xmlns:cc="http://creativecommons.org/ns#"
   xmlns:dc="http://purl.org/dc/elements/1.1/">
  <defs
     id="defs3">
    <style
       id="current-color-scheme"
       type="text/css">
      .ColorScheme-Text { color:#363636; }
    </style>
  </defs>
  <sodipodi:namedview
     id="namedview3"
     pagecolor="#ffffff"
     bordercolor="#000000"
     borderopacity="0.25"
     inkscape:showpageshadow="2"
     inkscape:pageopacity="0.0"
     inkscape:pagecheckerboard="0"
     inkscape:deskcolor="#d1d1d1"
     inkscape:zoom="49.6875"
     inkscape:cx="8"
     inkscape:cy="8"
     inkscape:window-width="1920"
     inkscape:window-height="1010"
     inkscape:window-x="0"
     inkscape:window-y="0"
     inkscape:window-maximized="1"
     inkscape:current-layer="svg3" />
  <title
     id="title1">Gnome Symbolic Icon Theme</title>
  <path
     id="path1"
     style="fill:currentColor"
     class="ColorScheme-Text"
     d="M 8 0 C 5.784 0 4 1.784 4 4 L 4 6 C 2.892 6 2 6.892 2 8 L 2 13 C 2 14.108 2.892 15 4 15 L 7.2675781 15 A 5.5 5.5 0 0 1 6.6132812 14 L 4 14 C 3.446 14 3 13.554 3 13 L 3 8 C 3 7.446 3.446 7 4 7 L 8.3574219 7 A 5.5 5.5 0 0 1 11.5 6 L 12 6 L 12 4 C 12 1.784 10.216 0 8 0 z M 8 1 C 9.662 1 11 2.338 11 4 L 11 6 L 5 6 L 5 4 C 5 2.338 6.338 1 8 1 z " />
  <path
     id="path3"
     style="fill:currentColor"
     class="ColorScheme-Text"
     d="M 11.5 7 A 4.5 4.5 0 0 0 7 11.5 A 4.5 4.5 0 0 0 11.5 16 A 4.5 4.5 0 0 0 16 11.5 A 4.5 4.5 0 0 0 11.5 7 z M 11.074219 8.5 L 11.917969 8.5 L 13.955078 14.5 L 13.154297 14.5 L 12.580078 12.666016 L 10.386719 12.666016 L 9.8046875 14.5 L 9.0449219 14.5 L 11.074219 8.5 z M 11.466797 9.1132812 C 11.278527 9.8172413 11.081971 10.465231 10.869141 11.144531 L 10.574219 12.068359 L 12.392578 12.068359 L 12.105469 11.144531 C 11.884459 10.465131 11.69645 9.8089812 11.5 9.1132812 L 11.466797 9.1132812 z " />
  <metadata
     id="metadata3">
    <rdf:RDF>
      <cc:Work
         rdf:about="">
        <dc:title>Gnome Symbolic Icon Theme</dc:title>
      </cc:Work>
    </rdf:RDF>
  </metadata>
</svg>

<svg width="16" height="16" version="1.1" xmlns="http://www.w3.org/2000/svg">
 <title>Gnome Symbolic Icon Theme</title>
 <path d="m8 0c-2.216 0-4 1.784-4 4v2h1v-2c0-1.662 1.338-3 3-3s3 1.338 3 3v2h1v-2c0-2.216-1.784-4-4-4z" fill="#363636"/>
 <path d="m4 6c-1.108 0-2 0.892-2 2v5c0 1.108 0.892 2 2 2h3.2676a5.5 5.5 0 0 1-0.6543-1h-2.6133c-0.554 0-1-0.446-1-1v-5c0-0.554 0.446-1 1-1h4.3574a5.5 5.5 0 0 1 3.1426-1z" fill="#363636"/>
 <path d="m11.5 7a4.5 4.5 0 0 0-4.5 4.5 4.5 4.5 0 0 0 4.5 4.5 4.5 4.5 0 0 0 4.5-4.5 4.5 4.5 0 0 0-4.5-4.5zm-0.42578 1.5h0.84375l2.0371 6h-0.80078l-0.57422-1.834h-2.1934l-0.58203 1.834h-0.75977zm0.39258 0.61328c-0.18827 0.70396-0.38483 1.3519-0.59766 2.0312l-0.29492 0.92383h1.8184l-0.28711-0.92383c-0.22101-0.6794-0.40902-1.3355-0.60547-2.0312z" fill="#363636" style="paint-order:stroke fill markers"/>
</svg>
